X: 14302
T: the Maid's Complaint
C: James Oswald
%R: air, strathspey
B: James Oswald "The Caledonian Pocket Companion" v.1 b.4 p.30 #2
S: https://ia800501.us.archive.org/18/items/caledonianpocket01rugg/caledonianpocket01rugg_bw.pdf
Z: 2020 John Chambers <jc:trillian.mit.edu>
N: Bar 10 has only 3 beats in the book; fixed by changing the first 4 notes from 16th-notes to 8th-notes, to match other bars' rhythms.
M: C
L: 1/16
K: D
%%slurgraces 1
%%graceslurs 1
"_Slow"A4 |\
d6^c2 d3cd3e | f4 F3G F4 f3e | d4 {de}f4 c4 (dcBA) | {A}G8 z4 F3G |\
(A3G)(F3G) A4 f3e |
(d2c2)(d2f2) c6c2 | d2e2 f4 g2ab (agfe) | {e}f8 z4 :: e3f |\
(g2c2) (a2g2) g6 (fe) | f2e2f2g2 {g}a6 c2 |
(A2G2)(A2c2) (f2e2)(d2^c2) | d8 z4 (de)f2 |\
c4 (dcBA) G4 (e3f) | (g2f2)(e2d2) A4(F2G2) | (A2F2)(B2A2) (GF3) (TE3D) | D8 z4 :|
